packages/ffe-icons/icons/filled/sm/lab_panel.svg

<svg xmlns="http://www.w3.org/2000/svg" height="20" viewBox="0 -960 960 960" width="20"><path d="M132.309-164.001q-26.623 0-45.465-18.843Q68-201.686 68-228.309v-167.382q0-26.623 18.843-45.465 18.842-18.843 45.465-18.843h31.692v-156.077h-3.846q-19.077-3.769-31.615-18.807-12.539-15.038-12.539-34.192v-53.385q0-22.007 15.381-37.387 15.38-15.381 37.387-15.381h214.462q22.007 0 37.387 15.381 15.381 15.38 15.381 37.387v53.385q0 19.154-12.539 34.192-12.538 15.038-31.615 18.807h-3.846v156.077h184.002v-160.077h-3.846q-19.077-3.769-31.615-18.807-12.539-15.038-12.539-34.192v-49.385q0-22.007 15.381-37.387 15.38-15.381 37.387-15.381h214.462q22.007 0 37.387 15.381 15.381 15.38 15.381 37.387v49.385q0 19.154-12.539 34.192-12.538 15.038-31.615 18.807h-3.846v160.077h31.692q26.623 0 45.465 18.843 18.843 18.842 18.843 45.465v167.382q0 26.623-18.843 45.465-18.842 18.843-45.465 18.843H132.309ZM624-459.999h120v-160.308H624v160.308Zm-408 0h120v-156.308H216v156.308Z"/></svg>

<svg xmlns="http://www.w3.org/2000/svg" height="20" viewBox="0 -960 960 960" width="20"><path d="M132.31-164q-26.62 0-45.47-18.84Q68-201.69 68-228.31v-167.38q0-26.62 18.84-45.47Q105.69-460 132.31-460H164v-156.08h-3.84q-19.08-3.76-31.62-18.8Q116-649.92 116-669.07v-53.39q0-22.01 15.38-37.39 15.38-15.38 37.39-15.38h214.46q22.01 0 37.39 15.38Q436-744.47 436-722.46v53.39q0 19.15-12.54 34.19t-31.62 18.8H388V-460h184v-160.08h-3.84q-19.08-3.76-31.62-18.8Q524-653.92 524-673.07v-49.39q0-22.01 15.38-37.39 15.38-15.38 37.39-15.38h214.46q22.01 0 37.39 15.38Q844-744.47 844-722.46v49.39q0 19.15-12.54 34.19t-31.62 18.8H796V-460h31.69q26.62 0 45.47 18.84Q892-422.31 892-395.69v167.38q0 26.62-18.84 45.47Q854.31-164 827.69-164H132.31ZM624-460h120v-160.31H624V-460Zm-408 0h120v-156.31H216V-460Z"/></svg>
